**harm	**harte	**timestamp	**phrase	**leadinstrument	**kern
*M4/4	*M4/4	*	*	*	*
*C:	*C:	*	*	*	*C:
1r;	N	0	.	r	1r;
=1	=1	=1	=1	=1	=1
*>A_intro	*>A_intro	*>A_intro	*>A_intro	*>A_intro	*>A_intro
4r	N	0.72	newline	banjo	4r
4V	G:1	1.089	.	banjo	4G 4b 4dd
4vi	A:1	1.458	.	banjo	4A 4cc 4ee
4vii	B:1	1.827	.	banjo	4B 4dd 4ff#
=2	=2	=2	=2	=2	=2
2I	C:maj	2.196	.	banjo	2C 2e 2g
2iiic	E:min/5	2.934	.	banjo	2e 2g 2B
=3	=3	=3	=3	=3	=3
2IVb	F:maj/3	3.672	.	banjo	2f 2A 2cc
2V	G:maj	4.41	.	banjo	2G 2b 2dd
=4	=4	=4	=4	=4	=4
2I	C:maj	5.148	.	banjo	2C 2e 2g
2iiic	E:min/5	5.887	.	banjo	2e 2g 2B
=5	=5	=5	=5	=5	=5
2IVb	F:maj/3	6.625	.	banjo	2f 2A 2cc
2V	G:maj	7.363	.	banjo	2G 2b 2dd
=6	=6	=6	=6	=6	=6
*>B_verse	*>B_verse	*>B_verse	*>B_verse	*>B_verse	*>B_verse
2I	C:maj	8.101	newline	guitar	2C 2e 2g
2vi	A:min	8.886	.	guitar	2A 2cc 2ee
=7	=7	=7	=7	=7	=7
2ii	D:min	9.671	.	guitar	2D 2f 2a
2V	G:maj	10.457	.	guitar	2G 2b 2dd
=8	=8	=8	=8	=8	=8
2I	C:maj	11.242	.	guitar	2C 2e 2g
2vi	A:min	12.027	.	guitar	2A 2cc 2ee
=9	=9	=9	=9	=9	=9
2ii	D:min	12.813	.	guitar	2D 2f 2a
2V	G:maj	13.598	.	guitar	2G 2b 2dd
=10	=10	=10	=10	=10	=10
2I	C:maj	14.383	newline	guitar	2C 2e 2g
2vi	A:min	15.169	.	guitar	2A 2cc 2ee
=11	=11	=11	=11	=11	=11
2ii	D:min	15.954	.	guitar	2D 2f 2a
2V	G:maj	16.739	.	guitar	2G 2b 2dd
=12	=12	=12	=12	=12	=12
1III7	E:7	17.525	.	guitar	1E 1g# 1b 1dd
=13	=13	=13	=13	=13	=13
1V	G:maj	19.096	.	guitar	1G 1b 1dd
=14	=14	=14	=14	=14	=14
*>C_chorus	*>C_chorus	*>C_chorus	*>C_chorus	*>C_chorus	*>C_chorus
2I	C:maj	20.667	newline	guitar	2C 2e 2g
2vi	A:min	21.459	.	guitar	2A 2cc 2ee
=15	=15	=15	=15	=15	=15
2ii	D:min	22.252	.	guitar	2D 2f 2a
2V	G:maj	23.044	.	guitar	2G 2b 2dd
=16	=16	=16	=16	=16	=16
2I	C:maj	23.836	.	guitar	2C 2e 2g
2vi	A:min	24.629	.	guitar	2A 2cc 2ee
=17	=17	=17	=17	=17	=17
2ii	D:min	25.421	.	guitar	2D 2f 2a
2V	G:maj	26.214	.	guitar	2G 2b 2dd
=18	=18	=18	=18	=18	=18
2I	C:maj	27.006	newline	guitar	2C 2e 2g
2vi	A:min	27.791	.	guitar	2A 2cc 2ee
=19	=19	=19	=19	=19	=19
2ii	D:min	28.576	.	guitar	2D 2f 2a
2V	G:maj	29.36	.	guitar	2G 2b 2dd
=20	=20	=20	=20	=20	=20
2I	C:maj	30.145	.	guitar	2C 2e 2g
2IV	F:maj	30.929	.	guitar	2F 2a 2cc
=21	=21	=21	=21	=21	=21
1I	C:maj	31.714	.	guitar	1C 1e 1g
=22	=22	=22	=22	=22	=22
*>D_bridge	*>D_bridge	*>D_bridge	*>D_bridge	*>D_bridge	*>D_bridge
1IV	F:maj	33.283	newline	guitar	1F 1a 1cc
=23	=23	=23	=23	=23	=23
1IV	F:maj	34.852	.	guitar	1F 1a 1cc
=24	=24	=24	=24	=24	=24
1III7	E:7	36.42	.	guitar	1E 1g# 1b 1dd
=25	=25	=25	=25	=25	=25
1III7	E:7	37.988	.	guitar	1E 1g# 1b 1dd
=26	=26	=26	=26	=26	=26
1IV	F:maj	39.557	newline	guitar	1F 1a 1cc
=27	=27	=27	=27	=27	=27
1IV	F:maj	41.122	.	guitar	1F 1a 1cc
=28	=28	=28	=28	=28	=28
1III7	E:7	42.688	.	guitar	1E 1g# 1b 1dd
=29	=29	=29	=29	=29	=29
1V	G:maj	44.254	.	guitar	1G 1b 1dd
=30	=30	=30	=30	=30	=30
*>C_chorus	*>C_chorus	*>C_chorus	*>C_chorus	*>C_chorus	*>C_chorus
2I	C:maj	45.82	newline	guitar	2C 2e 2g
2vi	A:min	46.606	.	guitar	2A 2cc 2ee
=31	=31	=31	=31	=31	=31
2ii	D:min	47.392	.	guitar	2D 2f 2a
2V	G:maj	48.178	.	guitar	2G 2b 2dd
=32	=32	=32	=32	=32	=32
2I	C:maj	48.964	.	guitar	2C 2e 2g
2vi	A:min	49.75	.	guitar	2A 2cc 2ee
=33	=33	=33	=33	=33	=33
2ii	D:min	50.536	.	guitar	2D 2f 2a
2V	G:maj	51.322	.	guitar	2G 2b 2dd
=34	=34	=34	=34	=34	=34
2I	C:maj	52.109	newline	guitar	2C 2e 2g
2vi	A:min	52.902	.	guitar	2A 2cc 2ee
=35	=35	=35	=35	=35	=35
2ii	D:min	53.695	.	guitar	2D 2f 2a
2V	G:maj	54.488	.	guitar	2G 2b 2dd
=36	=36	=36	=36	=36	=36
2I	C:maj	55.282	.	guitar	2C 2e 2g
2IV	F:maj	56.075	.	guitar	2F 2a 2cc
=37	=37	=37	=37	=37	=37
2I	C:maj	56.868	.	guitar	2C 2e 2g
2V	G:maj	57.661	.	guitar	2G 2b 2dd
=38	=38	=38	=38	=38	=38
*>E_interlude	*>E_interlude	*>E_interlude	*>E_interlude	*>E_interlude	*>E_interlude
1I	C:maj	58.455	newline	drums	1C 1e 1g
=39	=39	=39	=39	=39	=39
1r	N	59.98	.	drums	1r
=40	=40	=40	=40	=40	=40
1r	N	61.506	.	drums	1r
=41	=41	=41	=41	=41	=41
1r	N	63.031	.	drums	1r
=42	=42	=42	=42	=42	=42
*>A_intro	*>A_intro	*>A_intro	*>A_intro	*>A_intro	*>A_intro
2I	C:maj	64.557	newline	banjo	2C 2e 2g
2iiic	E:min/5	65.344	.	banjo	2e 2g 2B
=43	=43	=43	=43	=43	=43
2IVb	F:maj/3	66.13	.	banjo	2f 2A 2cc
2V	G:maj	66.917	.	banjo	2G 2b 2dd
=44	=44	=44	=44	=44	=44
2II	D:maj	67.704	.	banjo	2D 2f# 2a
2#ivc	F#:min/5	68.491	.	banjo	2f# 2a 2C#
=45	=45	=45	=45	=45	=45
2Vb	G:maj/3	69.278	.	banjo	2g 2B 2dd
2VI	A:maj	70.065	.	banjo	2A 2cc# 2ee
=46	=46	=46	=46	=46	=46
*>B_verse	*>B_verse	*>B_verse	*>B_verse	*>B_verse	*>B_verse
*D:	*D:	*	*	*	*D:
2I	D:maj	70.851	newline	guitar	2D 2f# 2a
2vi	B:min	71.641	.	guitar	2B 2dd 2ff#
=47	=47	=47	=47	=47	=47
2ii	E:min	72.432	.	guitar	2E 2g 2b
2V	A:maj	73.222	.	guitar	2A 2cc# 2ee
=48	=48	=48	=48	=48	=48
2I	D:maj	74.012	.	guitar	2D 2f# 2a
2vi	B:min	74.802	.	guitar	2B 2dd 2ff#
=49	=49	=49	=49	=49	=49
2ii	E:min	75.592	.	guitar	2E 2g 2b
2V	A:maj	76.382	.	guitar	2A 2cc# 2ee
=50	=50	=50	=50	=50	=50
2I	D:maj	77.172	newline	guitar	2D 2f# 2a
2vi	B:min	77.972	.	guitar	2B 2dd 2ff#
=51	=51	=51	=51	=51	=51
2ii	E:min	78.771	.	guitar	2E 2g 2b
2V	A:maj	79.571	.	guitar	2A 2cc# 2ee
=52	=52	=52	=52	=52	=52
1III7	F#:7	80.37	.	guitar	1F# 1a# 1cc# 1ee
=53	=53	=53	=53	=53	=53
1V	A:maj	81.969	.	guitar	1A 1cc# 1ee
=54	=54	=54	=54	=54	=54
*>C_chorus	*>C_chorus	*>C_chorus	*>C_chorus	*>C_chorus	*>C_chorus
2I	D:maj	83.568	newline	guitar	2D 2f# 2a
2vi	B:min	84.362	.	guitar	2B 2dd 2ff#
=55	=55	=55	=55	=55	=55
2ii	E:min	85.156	.	guitar	2E 2g 2b
2V	A:maj	85.95	.	guitar	2A 2cc# 2ee
=56	=56	=56	=56	=56	=56
2I	D:maj	86.744	.	guitar	2D 2f# 2a
2vi	B:min	87.538	.	guitar	2B 2dd 2ff#
=57	=57	=57	=57	=57	=57
2ii	E:min	88.332	.	guitar	2E 2g 2b
2V	A:maj	89.126	.	guitar	2A 2cc# 2ee
=58	=58	=58	=58	=58	=58
2I	D:maj	89.92	newline	guitar	2D 2f# 2a
2vi	B:min	90.718	.	guitar	2B 2dd 2ff#
=59	=59	=59	=59	=59	=59
2ii	E:min	91.516	.	guitar	2E 2g 2b
2V	A:maj	92.314	.	guitar	2A 2cc# 2ee
=60	=60	=60	=60	=60	=60
2I	D:maj	93.112	.	guitar	2D 2f# 2a
2iv	G:min	93.91	.	guitar	2G 2b- 2dd
=61	=61	=61	=61	=61	=61
1I	D:maj	94.707	.	guitar	1D 1f# 1a
=62	=62	=62	=62	=62	=62
*>D_bridge	*>D_bridge	*>D_bridge	*>D_bridge	*>D_bridge	*>D_bridge
1IV	G:maj	96.303	newline	guitar	1G 1b 1dd
=63	=63	=63	=63	=63	=63
1IV	G:maj	97.862	.	guitar	1G 1b 1dd
=64	=64	=64	=64	=64	=64
1III	F#:maj	99.421	.	guitar	1F# 1a# 1cc#
=65	=65	=65	=65	=65	=65
1III	F#:maj	100.981	.	guitar	1F# 1a# 1cc#
=66	=66	=66	=66	=66	=66
1IV	G:maj	102.54	newline	guitar	1G 1b 1dd
=67	=67	=67	=67	=67	=67
1IV	G:maj	104.13	.	guitar	1G 1b 1dd
=68	=68	=68	=68	=68	=68
1III	F#:maj	105.721	.	guitar	1F# 1a# 1cc#
=69	=69	=69	=69	=69	=69
1V	A:maj	107.311	.	guitar	1A 1cc# 1ee
=70	=70	=70	=70	=70	=70
*>C_chorus	*>C_chorus	*>C_chorus	*>C_chorus	*>C_chorus	*>C_chorus
2I	D:maj	108.901	newline	guitar	2D 2f# 2a
2vi	B:min	109.696	.	guitar	2B 2dd 2ff#
=71	=71	=71	=71	=71	=71
2ii	E:min	110.491	.	guitar	2E 2g 2b
2V	A:maj	111.286	.	guitar	2A 2cc# 2ee
=72	=72	=72	=72	=72	=72
2I	D:maj	112.081	.	guitar	2D 2f# 2a
2vi	B:min	112.876	.	guitar	2B 2dd 2ff#
=73	=73	=73	=73	=73	=73
2ii	E:min	113.671	.	guitar	2E 2g 2b
2V	A:maj	114.466	.	guitar	2A 2cc# 2ee
=74	=74	=74	=74	=74	=74
2I	D:maj	115.26	newline	guitar	2D 2f# 2a
2vi	B:min	116.055	.	guitar	2B 2dd 2ff#
=75	=75	=75	=75	=75	=75
2ii	E:min	116.85	.	guitar	2E 2g 2b
2V	A:maj	117.645	.	guitar	2A 2cc# 2ee
=76	=76	=76	=76	=76	=76
2I	D:maj	118.439	.	guitar	2D 2f# 2a
2iv	G:min	119.234	.	guitar	2G 2b- 2dd
=77	=77	=77	=77	=77	=77
1I	D:maj	120.029	.	guitar	1D 1f# 1a
1r;	N	122.81	.	r	1r;
1r;	N	125.518	.	r	1r;
*-	*-	*-	*-	*-	*-
!!!OTL: Perfidia
!!!COC: The Ventures
!!!BillboardChartDate: 1960/11/07
!!!BillboardPeak: 15
!!!BillboardWeeksOnChart: 13
!!!SampleTargetRank: 44
!!!SampleActualRank: 44
!!!SampleID#: 0926
!!!RDF**harmony: **recip + pitch class of root + harmonic quality
!!!RDF**harte: Chris Harte's syntax, used by MIREX
!!!RDF**phrase: newline = linebreak in original McGill transcription
!!!RDF**timestamp: McGill audio timestamp in seconds
!!!RDF**leadinstrument: original McGill primary instrumentation annotation
!!!RDT: 2017/01/12/
!!!ENC: Nathaniel Condit-Schultz
!!!EST: Awating manual error checking and editing.
